X:513
T: Fuesendsliddchen (219a), S. 471
N: T0401
O: Luxemburg
S: Singendes Volk, Esch-Alzette, 1937 posth.]
N: Godbringen, fff Mutter des Verfassers, um 1850;
N: (219b)- Straen, fff Witry, 13.12.1932
R: Ansingelied fr Volks- und Festtage, Kinderlied, Kinderliedterno]
M: 2/4
L: 1/16
K: E
=G2 | =GGG2A2A2 | =G2=F2E2
E2 | =G2G2A2A2 | =G2=F2E2
E2 | =G2G2A2A2 | =G4E2
E2 | =G2G2A2A2 | =GG=F2E4 |
G2G2AAA2 | =G2=F2E4 |
G4E4 | =G4AAA2 | =G4E4 |
G4A2A2 | =G4E2
E2 | =G2G2A2A2 | =G4E2

@@@ Tune index: 8567
